components/brave_wallet_ui/page/screens/swap/assets/lp-icons/crema.svg

<?xml version="1.0" encoding="UTF-8"?>
<svg width="104px" height="81px" viewBox="0 0 104 81" version="1.1" xmlns="http://www.w3.org/2000/svg" xmlns:xlink="http://www.w3.org/1999/xlink">
    <title>logo备份 3</title>
    <defs>
        <linearGradient x1="98.6458773%" y1="46.7281909%" x2="-14.138379%" y2="29.6384422%" id="linearGradient-1">
            <stop stop-color="#4CFFDF" offset="0%"></stop>
            <stop stop-color="#6676F5" offset="63.7236909%"></stop>
            <stop stop-color="#C400FF" offset="100%"></stop>
        </linearGradient>
    </defs>
    <g id="页面-1" stroke="none" stroke-width="1" fill="none" fill-rule="evenodd">
        <g id="画板备份-71" transform="translate(-248.000000, -159.000000)" fill="url(#linearGradient-1)" fill-rule="nonzero">
            <g id="logo备份-3" transform="translate(248.549133, 159.716763)">
                <path d="M101.61048,25.7561214 C101.908565,26.2470946 102.105425,26.7925216 102.190344,27.359897 L102.219852,27.6043068 L102.219852,27.6043068 C105.338116,61.4972581 76.2537818,80.283237 53.3165839,80.283237 C20.4646636,80.283237 2.17028166,60.3881222 0.496498217,32.3658705 L0.450867052,31.5142359 L0.450867052,31.5142359 C0.642758926,27.9465392 3.67089814,25.2109704 7.21440531,25.4041722 C8.09477127,25.4521722 8.95590702,25.6820711 9.74422935,26.0795637 C10.9534353,26.6891442 12.1748236,27.2564125 13.4084467,27.7812629 C42.6563977,40.2249324 70.0032917,40.2249324 95.6070441,24.4054009 C95.6438789,24.3826422 95.6856055,24.3569172 95.7322241,24.3282259 L95.7322734,24.3283067 C97.7471021,23.088284 100.378865,23.7275385 101.61048,25.7561214 Z M41.2472454,5.20682419 C41.6724714,5.4897667 42.0986369,5.77389434 42.5258169,6.05869267 L43.3815517,6.62903115 C55.5242534,14.7171763 68.52152,23.0684222 84.0806336,19.9818543 C88.8398026,19.0077668 90.6914383,18.5285309 93.9979029,17.9985158 C96.2491563,18.9841098 90.6237357,22.3556037 89.7821966,22.9396295 C69.7948999,40.1960793 5.32556646,31.2741263 5.32556646,12.2788733 C6.09141841,-0.935538727 26.7091651,-3.13863626 41.2472454,5.20682419 Z M86.2038571,5.79031787 C86.35557,5.82757816 86.5070028,5.8651657 86.6578887,5.90322088 L87.108639,6.01892976 C90.6224835,6.93850546 93.6869447,8.19388027 92.8389855,11.6072849 C90.3210642,18.4371936 71.0042348,17.0378065 62.3942243,13.3102006 L61.9270803,13.1007536 C61.3308921,12.8237485 61.0706202,12.1125861 61.3457473,11.5123279 C61.5563773,11.0527863 62.0313028,10.7762817 62.531956,10.8217101 C62.5585841,10.8241174 62.5848768,10.826411 62.6108351,10.8285822 C67.0621339,11.2008994 71.6112334,10.3239001 75.2691195,7.90337775 C78.4159444,5.97084919 82.5783668,5.22312232 86.2038571,5.79031787 Z" id="形状结合"></path>
            </g>
        </g>
    </g>
</svg>

<svg xmlns="http://www.w3.org/2000/svg" width="104" height="81"><defs><linearGradient id="a" x1="98.646%" x2="-14.138%" y1="46.728%" y2="29.638%"><stop offset="0%" stop-color="#4CFFDF"/><stop offset="63.724%" stop-color="#6676F5"/><stop offset="100%" stop-color="#C400FF"/></linearGradient></defs><path fill="url(#a)" d="M101.61 25.756c.299.491.495 1.037.58 1.604l.03.244c3.118 33.893-25.966 52.68-48.903 52.68-32.852 0-51.147-19.896-52.82-47.918l-.046-.852c.192-3.567 3.22-6.303 6.763-6.11.88.048 1.742.278 2.53.676 1.21.61 2.43 1.176 3.664 1.701 29.248 12.444 56.595 12.444 82.199-3.376l.125-.077a4.26 4.26 0 0 1 5.878 1.428ZM41.247 5.206l1.279.853.856.57c12.142 8.088 25.14 16.44 40.699 13.353 4.759-.974 6.61-1.453 9.917-1.983 2.251.985-3.374 4.357-4.216 4.94C69.795 40.197 5.326 31.275 5.326 12.28 6.09-.936 26.709-3.14 41.247 5.207Zm44.957.584.454.113.45.116c3.514.92 6.579 2.175 5.731 5.588-2.518 6.83-21.835 5.43-30.445 1.703l-.467-.21a1.2 1.2 0 0 1-.581-1.588c.21-.46.685-.736 1.186-.69l.079.007c4.451.372 9-.505 12.658-2.926 3.147-1.932 7.31-2.68 10.935-2.113Z" transform="translate(.55 .717)"/></svg>
